outputs/icons/navigation/cancel_sharp.svg

<svg xmlns="http://www.w3.org/2000/svg" width="1200" height="1200" fill="none"><g clip-path="url(#a)"><path fill="#000" d="M600 100c-276.5 0-500 223.5-500 500s223.5 500 500 500 500-223.5 500-500-223.5-500-500-500m250 679.5L779.5 850 600 670.5 420.5 850 350 779.5 529.5 600 350 420.5l70.5-70.5L600 529.5 779.5 350l70.5 70.5L670.5 600z"/></g><defs><clipPath id="a"><path fill="#fff" d="M0 0h1200v1200H0z"/></clipPath></defs></svg>

<svg width="1200" height="1200" viewBox="0 0 1200 1200" fill="none" xmlns="http://www.w3.org/2000/svg"><g clip-path="url(#clip0_117_964)"><path d="M600 100C323.5 100 100 323.5 100 600C100 876.5 323.5 1100 600 1100C876.5 1100 1100 876.5 1100 600C1100 323.5 876.5 100 600 100ZM850 779.5L779.5 850L600 670.5L420.5 850L350 779.5L529.5 600L350 420.5L420.5 350L600 529.5L779.5 350L850 420.5L670.5 600L850 779.5Z" fill="#1D1E23"/></g><defs><clipPath id="clip0_117_964"><path width="24" fill="white" d="M0 0H1200V1200H0V0z"/></clipPath></defs></svg>
